Humanity/apps/48/session-properties.svg

<?xml version="1.0" encoding="UTF-8" standalone="no"?>
<!-- Created with Inkscape (http://www.inkscape.org/) -->
<svg
   xmlns:svg="http://www.w3.org/2000/svg"
   xmlns="http://www.w3.org/2000/svg"
   xmlns:xlink="http://www.w3.org/1999/xlink"
   version="1.0"
   width="48"
   height="48"
   id="svg2">
  <defs
     id="defs4">
    <linearGradient
       id="linearGradient3996">
      <stop
         id="stop3998"
         style="stop-color:#a0a0a0;stop-opacity:1"
         offset="0" />
      <stop
         id="stop4000"
         style="stop-color:#696969;stop-opacity:1"
         offset="1" />
    </linearGradient>
    <linearGradient
       id="linearGradient6602-4">
      <stop
         id="stop6604-3"
         style="stop-color:#ffffff;stop-opacity:1"
         offset="0" />
      <stop
         id="stop6606-7"
         style="stop-color:#ffffff;stop-opacity:0"
         offset="1" />
    </linearGradient>
    <linearGradient
       id="linearGradient6592-0">
      <stop
         id="stop6594-0"
         style="stop-color:#ffffff;stop-opacity:0.27450982"
         offset="0" />
      <stop
         id="stop6596-6"
         style="stop-color:#ffffff;stop-opacity:0"
         offset="1" />
    </linearGradient>
    <linearGradient
       id="linearGradient6560-7">
      <stop
         id="stop6562-8"
         style="stop-color:#a14c13;stop-opacity:1"
         offset="0" />
      <stop
         id="stop6564-6"
         style="stop-color:#6b0c0c;stop-opacity:1"
         offset="1" />
    </linearGradient>
    <linearGradient
       id="linearGradient6568-8">
      <stop
         id="stop6570-5"
         style="stop-color:#430d0d;stop-opacity:1"
         offset="0" />
      <stop
         id="stop6572-4"
         style="stop-color:#643314;stop-opacity:1"
         offset="1" />
    </linearGradient>
    <filter
       id="filter5786"
       color-interpolation-filters="sRGB">
      <feGaussianBlur
         id="feGaussianBlur5788"
         stdDeviation="0.62861987" />
    </filter>
    <linearGradient
       x1="302.85715"
       y1="366.64789"
       x2="302.85715"
       y2="609.50507"
       id="linearGradient5670"
       xlink:href="#linearGradient5048"
       gradientUnits="userSpaceOnUse"
       gradientTransform="matrix(6.652698e-2,0,0,3.501497e-2,-0.2635996,25.161837)" />
    <radialGradient
       cx="605.71429"
       cy="486.64789"
       r="117.14286"
       fx="605.71429"
       fy="486.64789"
       id="radialGradient5667"
       xlink:href="#linearGradient5060"
       gradientUnits="userSpaceOnUse"
       gradientTransform="matrix(6.652698e-2,0,0,3.501497e-2,-0.2505064,25.161837)" />
    <radialGradient
       cx="605.71429"
       cy="486.64789"
       r="117.14286"
       fx="605.71429"
       fy="486.64789"
       id="radialGradient5664"
       xlink:href="#linearGradient5060"
       gradientUnits="userSpaceOnUse"
       gradientTransform="matrix(-6.652698e-2,0,0,3.501497e-2,47.812816,25.161837)" />
    <linearGradient
       id="linearGradient5060">
      <stop
         id="stop5062"
         style="stop-color:#000000;stop-opacity:1"
         offset="0" />
      <stop
         id="stop5064"
         style="stop-color:#000000;stop-opacity:0"
         offset="1" />
    </linearGradient>
    <linearGradient
       id="linearGradient5048">
      <stop
         id="stop5050"
         style="stop-color:#000000;stop-opacity:0"
         offset="0" />
      <stop
         id="stop5056"
         style="stop-color:#000000;stop-opacity:1"
         offset="0.5" />
      <stop
         id="stop5052"
         style="stop-color:#000000;stop-opacity:0"
         offset="1" />
    </linearGradient>
    <linearGradient
       id="linearGradient5642">
      <stop
         id="stop5644"
         style="stop-color:#f5f5f5;stop-opacity:1"
         offset="0" />
      <stop
         id="stop5646"
         style="stop-color:#c8c8c8;stop-opacity:1"
         offset="1" />
    </linearGradient>
    <linearGradient
       x1="23.999998"
       y1="2"
       x2="23.999998"
       y2="11"
       id="linearGradient2878"
       xlink:href="#linearGradient5642"
       gradientUnits="userSpaceOnUse"
       gradientTransform="translate(-2.1906977e-7,3)" />
    <linearGradient
       x1="21.119612"
       y1="7"
       x2="21.223534"
       y2="13"
       id="linearGradient2880"
       xlink:href="#linearGradient3996"
       gradientUnits="userSpaceOnUse"
       gradientTransform="matrix(1.0487805,0,0,1,-1.1707319,-1)" />
    <linearGradient
       x1="12.9375"
       y1="8.4375"
       x2="15.25"
       y2="19.8125"
       id="linearGradient2887"
       xlink:href="#linearGradient6592-0"
       gradientUnits="userSpaceOnUse"
       gradientTransform="matrix(1,0,0,1.1333332,-4.5e-8,5.6000006)" />
    <radialGradient
       cx="5.9753318"
       cy="6.9549437"
       r="19.999998"
       fx="5.9753318"
       fy="6.9549437"
       id="radialGradient2894"
       xlink:href="#linearGradient6602-4"
       gradientUnits="userSpaceOnUse"
       gradientTransform="matrix(1.6645486,-1.193835e-2,2.8855e-3,0.7954925,-4.8893748,12.320781)" />
    <radialGradient
       cx="12.0987"
       cy="8.1959743"
       r="20.999998"
       fx="12.0987"
       fy="8.1959743"
       id="radialGradient2897"
       xlink:href="#linearGradient6560-7"
       gradientUnits="userSpaceOnUse"
       gradientTransform="matrix(1.5981419,0,1.428008e-2,1.3968807,-8.0378433,10.551202)" />
    <linearGradient
       x1="24.875"
       y1="29"
       x2="24.999996"
       y2="3.0000005"
       id="linearGradient2899"
       xlink:href="#linearGradient6568-8"
       gradientUnits="userSpaceOnUse"
       gradientTransform="matrix(1.0487806,0,0,1.4000003,-1.1707319,4.5999895)" />
    <linearGradient
       id="linearGradient4222">
      <stop
         id="stop4224"
         style="stop-color:#ffffff;stop-opacity:1"
         offset="0" />
      <stop
         id="stop4226"
         style="stop-color:#ffffff;stop-opacity:0"
         offset="1" />
    </linearGradient>
    <linearGradient
       id="linearGradient3793">
      <stop
         id="stop3795"
         style="stop-color:#8cab2a;stop-opacity:0"
         offset="0" />
      <stop
         id="stop3797"
         style="stop-color:#b1c948;stop-opacity:1"
         offset="0.6127364" />
      <stop
         id="stop3799"
         style="stop-color:#d7e866;stop-opacity:1"
         offset="1" />
    </linearGradient>
    <linearGradient
       id="linearGradient3480">
      <stop
         id="stop3482"
         style="stop-color:#548820;stop-opacity:1"
         offset="0" />
      <stop
         id="stop3484"
         style="stop-color:#548820;stop-opacity:0"
         offset="1" />
    </linearGradient>
    <linearGradient
       x1="62.952984"
       y1="23.890968"
       x2="2.4973762"
       y2="23.890968"
       id="linearGradient3555"
       xlink:href="#linearGradient3793"
       gradientUnits="userSpaceOnUse"
       gradientTransform="matrix(-0.5572773,0,0,0.5517612,-7.1404144,13.903892)" />
    <linearGradient
       x1="40.808029"
       y1="44.845047"
       x2="40.808029"
       y2="26.149443"
       id="linearGradient3557"
       xlink:href="#linearGradient3480"
       gradientUnits="userSpaceOnUse"
       gradientTransform="matrix(0,-1.095875,1.1068307,0,-71.165689,71.806498)" />
    <linearGradient
       x1="3.8877637"
       y1="26.022909"
       x2="-8.7979088"
       y2="26.022909"
       id="linearGradient3559"
       xlink:href="#linearGradient4222"
       gradientUnits="userSpaceOnUse"
       gradientTransform="matrix(0.6272101,0,0,0.5877029,-35.729537,11.387754)" />
  </defs>
  <g
     transform="matrix(0.9858753,0,0,0.9407741,0.5547534,3.250584)"
     id="g5672"
     style="opacity:0.53714288">
    <rect
       width="32.123024"
       height="8.5036354"
       x="7.7196383"
       y="38"
       id="rect4173"
       style="fill:url(#linearGradient5670);fill-opacity:1;fill-rule:nonzero;stroke:none;stroke-width:1;marker:none;visibility:visible;display:inline;overflow:visible" />
    <path
       d="M 39.842663,38.000295 C 39.842663,38.000295 39.842663,46.503461 39.842663,46.503461 C 43.268636,46.519471 48.125002,44.598333 48.125,42.25133 C 48.125,39.904328 44.30187,38.000295 39.842663,38.000295 z"
       id="path5058"
       style="fill:url(#radialGradient5667);fill-opacity:1;fill-rule:nonzero;stroke:none;stroke-width:1;marker:none;visibility:visible;display:inline;overflow:visible" />
    <path
       d="M 7.7196385,38.000295 C 7.7196385,38.000295 7.7196385,46.503461 7.7196385,46.503461 C 4.2936621,46.519471 -0.56270146,44.598333 -0.56270146,42.25133 C -0.56270146,39.904328 3.2604286,38.000295 7.7196385,38.000295 z"
       id="path5018"
       style="fill:url(#radialGradient5664);fill-opacity:1;fill-rule:nonzero;stroke:none;stroke-width:1;marker:none;visibility:visible;display:inline;overflow:visible" />
  </g>
  <rect
     width="42.999985"
     height="34.999985"
     rx="2"
     ry="1.9999999"
     x="2.5000083"
     y="9.5000086"
     id="rect2716"
     style="fill:url(#radialGradient2897);fill-opacity:1;fill-rule:evenodd;stroke:url(#linearGradient2899);stroke-width:1.00001669;stroke-linecap:butt;stroke-linejoin:miter;stroke-miterlimit:4;stroke-dasharray:none;stroke-opacity:1;display:inline;enable-background:new" />
  <rect
     width="41"
     height="34"
     rx="0.5"
     ry="0.5"
     x="3.5000002"
     y="9.5"
     id="rect6600"
     style="opacity:0.3;fill:none;stroke:url(#radialGradient2894);stroke-width:0.99999994;stroke-linecap:square;stroke-linejoin:miter;stroke-miterlimit:4;stroke-dasharray:none;stroke-opacity:1" />
  <rect
     width="14"
     height="11"
     rx="0.99999994"
     ry="0.99999994"
     x="6"
     y="27"
     id="rect7303"
     style="opacity:0.9;fill:#ffffff;fill-opacity:1;stroke:none" />
  <rect
     width="12"
     height="1"
     x="7"
     y="28"
     id="rect7305"
     style="opacity:0.3;fill:#000000;fill-opacity:1;stroke:none" />
  <rect
     width="18"
     height="16"
     rx="0.99999994"
     ry="1"
     x="24"
     y="16"
     id="rect7303-8"
     style="opacity:0.9;fill:#ffffff;fill-opacity:1;stroke:none" />
  <rect
     width="16"
     height="1"
     x="25"
     y="17"
     id="rect7305-5"
     style="opacity:0.3;fill:#000000;fill-opacity:1;stroke:none" />
  <path
     d="M 3,9 L 45,9 L 45,18.066667 L 3,26 L 3,9 z"
     id="rect6588"
     style="fill:url(#linearGradient2887);fill-opacity:1;stroke:none" />
  <path
     d="M 13.508688,32.491312 L 25.509,22.491312 L 25.509,28.021642 L 45,28.021642 L 45,37.005176 L 25.509,37.005176 L 25.509,42.491312 L 13.508688,32.491312 L 13.508688,32.491312 z"
     id="path5738"
     style="opacity:0.3142857;fill:#000000;fill-opacity:1;fill-rule:evenodd;stroke:none;filter:url(#filter5786)" />
  <rect
     width="43"
     height="5"
     rx="0.5"
     ry="0.5"
     x="2.5"
     y="6.5"
     id="rect5556"
     style="fill:url(#linearGradient2878);fill-opacity:1;fill-rule:evenodd;stroke:url(#linearGradient2880);stroke-width:1;stroke-linecap:square;stroke-linejoin:round;marker:none;stroke-miterlimit:4;stroke-dasharray:none;stroke-dashoffset:0;stroke-opacity:1;visibility:visible;display:inline;overflow:visible;enable-background:accumulate" />
  <g
     transform="matrix(-1,0,0,1,6.3391413,4.4140031)"
     id="g3551">
    <path
       d="M -21.035854,15.086 L -8.1608586,26.585998 L -21.035854,38.085997 L -21.035854,32.085998 L -41.910852,32.085998 L -41.910852,21.085999 L -21.035854,21.085999 L -21.035854,15.086 L -21.035854,15.086 z"
       id="path4348"
       style="fill:url(#linearGradient3555);fill-opacity:1;fill-rule:nonzero;stroke:url(#linearGradient3557);stroke-width:0.99999988;stroke-linecap:round;stroke-linejoin:round;marker:none;stroke-miterlimit:4;stroke-dasharray:none;stroke-dashoffset:0;stroke-opacity:1;visibility:visible;display:inline;overflow:visible" />
    <path
       d="M -20.035854,17.453334 L -9.6999016,26.585998 L -20.035854,35.828373 L -20.035854,31.085998 L -40.874996,31.085998 L -40.935516,22.085999 L -20.035853,22.085999 L -20.035853,17.453334 L -20.035854,17.453334 z"
       id="path4360"
       style="opacity:0.35400008;fill:none;stroke:url(#linearGradient3559);stroke-width:0.99999988;stroke-linecap:butt;stroke-linejoin:miter;marker:none;stroke-miterlimit:4;stroke-dasharray:none;stroke-dashoffset:0;stroke-opacity:1;visibility:visible;display:inline;overflow:visible" />
  </g>
</svg>

<?xml version="1.0" encoding="UTF-8" standalone="no"?>
<!-- Created with Inkscape (http://www.inkscape.org/) -->

<svg
   xmlns:svg="http://www.w3.org/2000/svg"
   xmlns="http://www.w3.org/2000/svg"
   xmlns:xlink="http://www.w3.org/1999/xlink"
   version="1.0"
   width="48"
   height="48"
   id="svg2">
  <defs
     id="defs4">
    <linearGradient
       id="linearGradient3996">
      <stop
         id="stop3998"
         style="stop-color:#a0a0a0;stop-opacity:1"
         offset="0" />
      <stop
         id="stop4000"
         style="stop-color:#696969;stop-opacity:1"
         offset="1" />
    </linearGradient>
    <linearGradient
       id="linearGradient6602-4">
      <stop
         id="stop6604-3"
         style="stop-color:white;stop-opacity:1"
         offset="0" />
      <stop
         id="stop6606-7"
         style="stop-color:white;stop-opacity:0"
         offset="1" />
    </linearGradient>
    <linearGradient
       id="linearGradient6592-0">
      <stop
         id="stop6594-0"
         style="stop-color:white;stop-opacity:0.27450982"
         offset="0" />
      <stop
         id="stop6596-6"
         style="stop-color:white;stop-opacity:0"
         offset="1" />
    </linearGradient>
    <linearGradient
       id="linearGradient6560-7">
      <stop
         id="stop6562-8"
         style="stop-color:#a14c13;stop-opacity:1"
         offset="0" />
      <stop
         id="stop6564-6"
         style="stop-color:#6b0c0c;stop-opacity:1"
         offset="1" />
    </linearGradient>
    <linearGradient
       id="linearGradient6568-8">
      <stop
         id="stop6570-5"
         style="stop-color:#430d0d;stop-opacity:1"
         offset="0" />
      <stop
         id="stop6572-4"
         style="stop-color:#643314;stop-opacity:1"
         offset="1" />
    </linearGradient>
    <filter
       color-interpolation-filters="sRGB"
       id="filter5786">
      <feGaussianBlur
         stdDeviation="0.62861987"
         id="feGaussianBlur5788" />
    </filter>
    <linearGradient
       x1="302.85715"
       y1="366.64789"
       x2="302.85715"
       y2="609.50507"
       id="linearGradient5670"
       xlink:href="#linearGradient5048"
       gradientUnits="userSpaceOnUse"
       gradientTransform="matrix(0.06652698,0,0,0.03501497,-0.2635996,25.161837)" />
    <radialGradient
       cx="605.71429"
       cy="486.64789"
       r="117.14286"
       fx="605.71429"
       fy="486.64789"
       id="radialGradient5667"
       xlink:href="#linearGradient5060"
       gradientUnits="userSpaceOnUse"
       gradientTransform="matrix(0.06652698,0,0,0.03501497,-0.2505064,25.161837)" />
    <radialGradient
       cx="605.71429"
       cy="486.64789"
       r="117.14286"
       fx="605.71429"
       fy="486.64789"
       id="radialGradient5664"
       xlink:href="#linearGradient5060"
       gradientUnits="userSpaceOnUse"
       gradientTransform="matrix(-0.06652698,0,0,0.03501497,47.812816,25.161837)" />
    <linearGradient
       id="linearGradient5060">
      <stop
         id="stop5062"
         style="stop-color:black;stop-opacity:1"
         offset="0" />
      <stop
         id="stop5064"
         style="stop-color:black;stop-opacity:0"
         offset="1" />
    </linearGradient>
    <linearGradient
       id="linearGradient5048">
      <stop
         id="stop5050"
         style="stop-color:black;stop-opacity:0"
         offset="0" />
      <stop
         id="stop5056"
         style="stop-color:black;stop-opacity:1"
         offset="0.5" />
      <stop
         id="stop5052"
         style="stop-color:black;stop-opacity:0"
         offset="1" />
    </linearGradient>
    <linearGradient
       id="linearGradient5642">
      <stop
         id="stop5644"
         style="stop-color:#f5f5f5;stop-opacity:1"
         offset="0" />
      <stop
         id="stop5646"
         style="stop-color:#c8c8c8;stop-opacity:1"
         offset="1" />
    </linearGradient>
    <linearGradient
       x1="23.999998"
       y1="2"
       x2="23.999998"
       y2="11"
       id="linearGradient2878"
       xlink:href="#linearGradient5642"
       gradientUnits="userSpaceOnUse"
       gradientTransform="translate(-2.1906977e-7,3)" />
    <linearGradient
       x1="21.119612"
       y1="7"
       x2="21.223534"
       y2="13"
       id="linearGradient2880"
       xlink:href="#linearGradient3996"
       gradientUnits="userSpaceOnUse"
       gradientTransform="matrix(1.0487805,0,0,1,-1.1707319,-1)" />
    <linearGradient
       x1="12.9375"
       y1="8.4375"
       x2="15.25"
       y2="19.8125"
       id="linearGradient2887"
       xlink:href="#linearGradient6592-0"
       gradientUnits="userSpaceOnUse"
       gradientTransform="matrix(1,0,0,1.1333332,-4.5e-8,5.6000006)" />
    <radialGradient
       cx="5.9753318"
       cy="6.9549437"
       r="19.999998"
       fx="5.9753318"
       fy="6.9549437"
       id="radialGradient2894"
       xlink:href="#linearGradient6602-4"
       gradientUnits="userSpaceOnUse"
       gradientTransform="matrix(1.6645486,-0.01193835,0.0028855,0.79549253,-4.8893748,12.320781)" />
    <radialGradient
       cx="12.0987"
       cy="8.1959743"
       r="20.999998"
       fx="12.0987"
       fy="8.1959743"
       id="radialGradient2897"
       xlink:href="#linearGradient6560-7"
       gradientUnits="userSpaceOnUse"
       gradientTransform="matrix(1.5981419,0,0.01428008,1.3968807,-8.0378433,10.551202)" />
    <linearGradient
       x1="24.875"
       y1="29"
       x2="24.999996"
       y2="3.0000005"
       id="linearGradient2899"
       xlink:href="#linearGradient6568-8"
       gradientUnits="userSpaceOnUse"
       gradientTransform="matrix(1.0487806,0,0,1.4000003,-1.1707319,4.5999895)" />
    <linearGradient
       id="linearGradient4222">
      <stop
         id="stop4224"
         style="stop-color:white;stop-opacity:1"
         offset="0" />
      <stop
         id="stop4226"
         style="stop-color:white;stop-opacity:0"
         offset="1" />
    </linearGradient>
    <linearGradient
       id="linearGradient3793">
      <stop
         id="stop3795"
         style="stop-color:#8cab2a;stop-opacity:0"
         offset="0" />
      <stop
         id="stop3797"
         style="stop-color:#b1c948;stop-opacity:1"
         offset="0.6127364" />
      <stop
         id="stop3799"
         style="stop-color:#d7e866;stop-opacity:1"
         offset="1" />
    </linearGradient>
    <linearGradient
       id="linearGradient3480">
      <stop
         id="stop3482"
         style="stop-color:#548820;stop-opacity:1"
         offset="0" />
      <stop
         id="stop3484"
         style="stop-color:#548820;stop-opacity:0"
         offset="1" />
    </linearGradient>
    <linearGradient
       x1="62.952984"
       y1="23.890968"
       x2="2.4973762"
       y2="23.890968"
       id="linearGradient3555"
       xlink:href="#linearGradient3793"
       gradientUnits="userSpaceOnUse"
       gradientTransform="matrix(-0.5572773,0,0,0.55176119,-7.1404144,13.903892)" />
    <linearGradient
       x1="40.808029"
       y1="44.845047"
       x2="40.808029"
       y2="26.149443"
       id="linearGradient3557"
       xlink:href="#linearGradient3480"
       gradientUnits="userSpaceOnUse"
       gradientTransform="matrix(0,-1.095875,1.1068307,0,-71.165689,71.806498)" />
    <linearGradient
       x1="3.8877637"
       y1="26.022909"
       x2="-8.7979088"
       y2="26.022909"
       id="linearGradient3559"
       xlink:href="#linearGradient4222"
       gradientUnits="userSpaceOnUse"
       gradientTransform="matrix(0.62721007,0,0,0.58770295,-35.729537,11.387754)" />
  </defs>
  <g
     transform="matrix(0.98587525,0,0,0.94077411,0.55475344,3.250584)"
     id="g5672"
     style="opacity:0.53714288">
    <rect
       width="32.123024"
       height="8.5036354"
       x="7.7196383"
       y="38"
       id="rect4173"
       style="color:black;fill:url(#linearGradient5670);fill-opacity:1;fill-rule:nonzero;stroke:none;stroke-width:1;marker:none;visibility:visible;display:inline;overflow:visible" />
    <path
       d="m 39.842663,38.000295 c 0,0 0,8.503166 0,8.503166 3.425973,0.01601 8.282339,-1.905128 8.282337,-4.252131 0,-2.347002 -3.82313,-4.251035 -8.282337,-4.251035 z"
       id="path5058"
       style="color:black;fill:url(#radialGradient5667);fill-opacity:1;fill-rule:nonzero;stroke:none;stroke-width:1;marker:none;visibility:visible;display:inline;overflow:visible" />
    <path
       d="m 7.7196385,38.000295 c 0,0 0,8.503166 0,8.503166 -3.4259764,0.01601 -8.28233996,-1.905128 -8.28233996,-4.252131 0,-2.347002 3.82313006,-4.251035 8.28233996,-4.251035 z"
       id="path5018"
       style="color:black;fill:url(#radialGradient5664);fill-opacity:1;fill-rule:nonzero;stroke:none;stroke-width:1;marker:none;visibility:visible;display:inline;overflow:visible" />
  </g>
  <rect
     width="42.999985"
     height="34.999985"
     rx="2"
     ry="1.9999999"
     x="2.5000083"
     y="9.5000086"
     id="rect2716"
     style="fill:url(#radialGradient2897);fill-opacity:1;fill-rule:evenodd;stroke:url(#linearGradient2899);stroke-width:1.00001669;stroke-linecap:butt;stroke-linejoin:miter;stroke-miterlimit:4;stroke-opacity:1;stroke-dasharray:none;display:inline;enable-background:new" />
  <rect
     width="41"
     height="34"
     rx="0.5"
     ry="0.5"
     x="3.5000002"
     y="9.5"
     id="rect6600"
     style="opacity:0.3;fill:none;stroke:url(#radialGradient2894);stroke-width:0.99999994;stroke-linecap:square;stroke-linejoin:miter;stroke-miterlimit:4;stroke-opacity:1;stroke-dasharray:none" />
  <rect
     width="14"
     height="11"
     rx="0.99999994"
     ry="0.99999994"
     x="6"
     y="27"
     id="rect7303"
     style="opacity:0.9;fill:white;fill-opacity:1;stroke:none" />
  <rect
     width="12"
     height="1"
     x="7"
     y="28"
     id="rect7305"
     style="opacity:0.3;fill:black;fill-opacity:1;stroke:none" />
  <rect
     width="18"
     height="16"
     rx="0.99999994"
     ry="1"
     x="24"
     y="16"
     id="rect7303-8"
     style="opacity:0.9;fill:white;fill-opacity:1;stroke:none" />
  <rect
     width="16"
     height="1"
     x="25"
     y="17"
     id="rect7305-5"
     style="opacity:0.3;fill:black;fill-opacity:1;stroke:none" />
  <path
     d="M 3,9 45,9 45,18.066667 3,26 3,9 z"
     id="rect6588"
     style="fill:url(#linearGradient2887);fill-opacity:1;stroke:none" />
  <path
     d="m 13.508688,32.491312 12.000312,-10 0,5.53033 19.491,0 0,8.983534 -19.491,0 0,5.486136 -12.000312,-10 z"
     id="path5738"
     style="opacity:0.3142857;fill:black;fill-opacity:1;fill-rule:evenodd;stroke:none;filter:url(#filter5786)" />
  <rect
     width="43"
     height="5"
     rx="0.5"
     ry="0.5"
     x="2.5"
     y="6.5"
     id="rect5556"
     style="color:black;fill:url(#linearGradient2878);fill-opacity:1;fill-rule:evenodd;stroke:url(#linearGradient2880);stroke-width:1;stroke-linecap:square;stroke-linejoin:round;stroke-miterlimit:4;stroke-opacity:1;stroke-dasharray:none;stroke-dashoffset:0;marker:none;visibility:visible;display:inline;overflow:visible;enable-background:accumulate" />
  <g
     transform="matrix(-1,0,0,1,6.3391413,4.4140031)"
     id="g3551">
    <path
       d="m -21.035854,15.086 12.8749954,11.499998 -12.8749954,11.499999 0,-5.999999 -20.874998,0 0,-10.999999 20.874998,0 0,-5.999999 z"
       id="path4348"
       style="fill:url(#linearGradient3555);fill-opacity:1;fill-rule:nonzero;stroke:url(#linearGradient3557);stroke-width:0.99999988;stroke-linecap:round;stroke-linejoin:round;stroke-miterlimit:4;stroke-opacity:1;stroke-dasharray:none;stroke-dashoffset:0;marker:none;visibility:visible;display:inline;overflow:visible" />
    <path
       d="m -20.035854,17.453334 10.3359524,9.132664 -10.3359524,9.242375 0,-4.742375 -20.839142,0 -0.06052,-8.999999 20.899663,0 0,-4.632665 z"
       id="path4360"
       style="opacity:0.35400008;fill:none;stroke:url(#linearGradient3559);stroke-width:0.99999988;stroke-linecap:butt;stroke-linejoin:miter;stroke-miterlimit:4;stroke-opacity:1;stroke-dasharray:none;stroke-dashoffset:0;marker:none;visibility:visible;display:inline;overflow:visible" />
  </g>
</svg>
